X:1
T:Title
%%score { ( 1 4 ) | ( 2 3 ) }
L:1/8
M:4/4
K:Bb
V:1 treble nm="Grand Piano"
V:4 treble 
V:2 bass 
V:3 bass 
V:1
 z4 z2[Q:1/4=100] [B,D][CE] | [DF]3 [DF] [EG][DF][FB]c | d6 [Fc]2 | [GB]3 [GB] [Gc][GB]GB | %4
[M:3/4] F6 |[M:1/4] DE |[M:4/4] [DF]3 [DF] [EG][DF][FB]c |[M:3/4] d6 |[M:1/4] [Ge]2 | %9
[M:4/4] d3 c Bcdc |[M:5/8] [B,DB]- [B,DB]3 z |[M:3/8] FGF |[M:4/4] B6 z2 | G6 z2 | c6 z2 | F6 z2 | %16
 d6 z2 |[M:3/4] e6 |[M:1/4] [Ge]2 |[M:4/4] d3 c Bcdc |[M:13/8] [DB]- [DB]3 z z z z z z z z2 |] %21
V:2
 z4 z2 [B,,F,]2 | [B,,B,]3 [B,,B,] [B,,B,][B,,B,][D,B,][K:treble][F,A,F] | [B,F]6[K:bass] [D,B,]2 | %3
 [E,E]3 [E,E] [E,E][E,E][E,B,E][F,A,E] |[M:3/4] [B,D]6 |[M:1/4] B,C | %6
[M:4/4] [B,,B,]3 [B,,B,] [B,,B,][B,,B,][D,B,][K:treble][F,A,F] |[M:3/4] [B,F]6 | %8
[M:1/4][K:bass] [E,B,]2 |[M:4/4] [F,B,F]3 [F,A,E] [G,B,D][F,A,F][F,A,F][F,A,E] | %10
[M:5/8] B,,- B,,3 z |[M:3/8][K:treble] DED |[M:4/4] F6[K:bass][K:treble] z2 | %13
 E6[K:bass][K:treble] z2 | =E6[K:bass][K:treble] z2 | z[K:bass] F,F,F, F,D[K:treble]DE | %16
 F6[K:bass][K:treble] z2 |[M:3/4] G6[K:bass] |[M:1/4] [E,B,]2 | %19
[M:4/4] [F,B,F]3 [F,A,E] [G,B,D][F,A,F][F,A,F][F,A,E] | %20
[M:13/8] [B,,B,]- [B,,B,]3 z z z z z z z z2 |] %21
V:3
 x8 | x7[K:treble] x | x6[K:bass] x2 | x8 |[M:3/4] x6 |[M:1/4] [B,,F,]2 |[M:4/4] x7[K:treble] x | %7
[M:3/4] x6 |[M:1/4][K:bass] x2 |[M:4/4] x8 |[M:5/8] x5 |[M:3/8][K:treble] x3 | %12
[M:4/4] z[K:bass] B,,B,,B,, B,,[K:treble]FED | z[K:bass] E,E,E, E,E[K:treble]EF | %14
 z[K:bass] C,C,C, C,[K:treble]F=EE | x[K:bass] x5[K:treble] x2 | %16
 z[K:bass] B,,D,F, z[K:treble] FEF |[M:3/4] z[K:bass] E, E,E, E,2 |[M:1/4] x2 |[M:4/4] x8 | %20
[M:13/8] x13 |] %21
V:4
 x8 | x8 | x8 | x8 |[M:3/4] x6 |[M:1/4] x2 |[M:4/4] x8 |[M:3/4] x6 |[M:1/4] x2 |[M:4/4] x8 | %10
[M:5/8] x5 |[M:3/8] x3 |[M:4/4] z DDD DdcB | z B,B,B, B,Gcd | z B,CB, G,AGA | z A,A,A, A,FBc | %16
 z B,B,B, B,dcd |[M:3/4] z B, B,B, B,2 |[M:1/4] x2 |[M:4/4] x8 |[M:13/8] x13 |] %21

